static/assets/img/icons/theme/electric/mixer.svg

<svg height="24" viewBox="0 0 24 24" width="24" xmlns="http://www.w3.org/2000/svg"><g fill="none" fill-rule="evenodd"><path d="m0 0h24v24h-24z" opacity="0"/><g fill="#000"><path d="m8.42265796 7.19586566c-.12990897-.12684331-.1808476-.31414147-.13307489-.48930806l.55323932-2.02854421c.16697296-.61223415.70114919-1.05314977 1.33393401-1.10104549l7.6227385-.5769679 1.0606602 1.06066017c1.0715382 1.07153815 2.5106642 2.69978407 4.3173782 4.88473776.4910678.59387396.5972615 1.41705047.2729878 2.11610727l-2.5585333 5.5155816c-.0715246.1541898-.1687354.2951017-.2874797.416716-.5787509.5927385-1.5284306.6040778-2.1211692.025327zm12.11947764 2.02494962-2.7426407-3.65685425c-.4310946-.57479283-1.2465275-.69128324-1.8213203-.26018862-.0492473.03693549-.0958109.0773199-.1393398.12084879-.5857865.58578644-.5857865 1.53553391 0 2.12132035l3.1819805 3.18198055c.3905243.3905243 1.0236893.3905243 1.4142135 0 .4057349-.4057349.4513842-1.04807026.1071068-1.50710682z"/><path d="m10.3766771 14.2317944 1.6634647 1.6634648c.6124709.6124708.6124709 1.6054822 0 2.2179531l-3.32692952 3.3269295c-.61247083.6124708-1.60548223.6124708-2.21795305 0l-4.43590609-4.4359061c-.61247082-.6124708-.61247082-1.6054822 0-2.217953l3.32692957-3.3269296c.61247082-.6124708 1.60548222-.6124708 2.21795304 0l1.66346479 1.6634648 1.66346476-1.6634648 1.1089765 1.1089765zm-3.04968548 5.8221268 3.32692958-3.3269296-.5544883-.5544883-3.32692954 3.3269296zm-1.66346478-1.6634648 3.32692957-3.3269296-.55448826-.5544882-3.32692957 3.3269295zm-1.66346479-1.6634648 3.32692957-3.3269296-.55448826-.5544882-3.32692957 3.3269295z" opacity=".3"/></g></g></svg>

<svg width="24px" height="24px" viewBox="0 0 24 24" version="1.1" xmlns="http://www.w3.org/2000/svg" xmlns:xlink="http://www.w3.org/1999/xlink">
    <title>Icon For Mixer</title>
    <g stroke="none" stroke-width="1" fill="none" fill-rule="evenodd">
        <rect opacity="0" x="0" y="0" width="24" height="24"></rect>
        <path d="M8.42265796,7.19586566 C8.29274899,7.06902235 8.24181036,6.88172419 8.28958307,6.7065576 L8.84282239,4.67801339 C9.00979535,4.06577924 9.54397158,3.62486362 10.1767564,3.5769679 L17.7994949,3 L18.8601551,4.06066017 C19.9316933,5.13219832 21.3708193,6.76044424 23.1775333,8.94539793 C23.6686011,9.53927189 23.7747948,10.3624484 23.4505211,11.0615052 L20.8919878,16.5770868 C20.8204632,16.7312766 20.7232524,16.8721885 20.6045081,16.9938028 C20.0257572,17.5865413 19.0760775,17.5978806 18.4833389,17.0191298 L8.42265796,7.19586566 Z M20.5421356,9.22081528 L17.7994949,5.56396103 C17.3684003,4.9891682 16.5529674,4.87267779 15.9781746,5.30377241 C15.9289273,5.3407079 15.8823637,5.38109231 15.8388348,5.4246212 C15.2530483,6.01040764 15.2530483,6.96015511 15.8388348,7.54594155 L19.0208153,10.7279221 C19.4113396,11.1184464 20.0445046,11.1184464 20.4350288,10.7279221 C20.8407637,10.3221872 20.886413,9.67985184 20.5421356,9.22081528 Z" fill="#000000"></path>
        <path d="M10.3766771,14.2317944 L12.0401418,15.8952592 C12.6526127,16.50773 12.6526127,17.5007414 12.0401418,18.1132123 L8.71321228,21.4401418 C8.10074145,22.0526126 7.10773005,22.0526126 6.49525923,21.4401418 L2.05935314,17.0042357 C1.44688232,16.3917649 1.44688232,15.3987535 2.05935314,14.7862827 L5.38628271,11.4593531 C5.99875353,10.8468823 6.99176493,10.8468823 7.60423575,11.4593531 L9.26770054,13.1228179 L10.9311653,11.4593531 L12.0401418,12.5683296 L10.3766771,14.2317944 Z M7.32699162,20.0539212 L10.6539212,16.7269916 L10.0994329,16.1725033 L6.77250336,19.4994329 L7.32699162,20.0539212 Z M5.66352684,18.3904564 L8.99045641,15.0635268 L8.43596815,14.5090386 L5.10903858,17.8359681 L5.66352684,18.3904564 Z M4.00006205,16.7269916 L7.32699162,13.400062 L6.77250336,12.8455738 L3.44557379,16.1725033 L4.00006205,16.7269916 Z" fill="#000000" opacity="0.3"></path>
    </g>
</svg>
